img/peermit.svg

<?xml version="1.0" encoding="UTF-8" standalone="no"?>
<svg
   xmlns:dc="http://purl.org/dc/elements/1.1/"
   xmlns:cc="http://creativecommons.org/ns#"
   xmlns:rdf="http://www.w3.org/1999/02/22-rdf-syntax-ns#"
   xmlns:svg="http://www.w3.org/2000/svg"
   xmlns="http://www.w3.org/2000/svg"
   xmlns:xlink="http://www.w3.org/1999/xlink"
   xmlns:sodipodi="http://sodipodi.sourceforge.net/DTD/sodipodi-0.dtd"
   xmlns:inkscape="http://www.inkscape.org/namespaces/inkscape"
   width="18"
   height="38"
   viewBox="0 0 18 38"
   version="1.1"
   id="svg2"
   inkscape:version="0.91 r13725"
   sodipodi:docname="peermit.svg">
  <metadata
     id="metadata49">
    <rdf:RDF>
      <cc:Work
         rdf:about="">
        <dc:format>image/svg+xml</dc:format>
        <dc:type
           rdf:resource="http://purl.org/dc/dcmitype/StillImage" />
        <dc:title>Group</dc:title>
      </cc:Work>
    </rdf:RDF>
  </metadata>
  <sodipodi:namedview
     pagecolor="#ffffff"
     bordercolor="#666666"
     borderopacity="1"
     objecttolerance="10"
     gridtolerance="10"
     guidetolerance="10"
     inkscape:pageopacity="0"
     inkscape:pageshadow="2"
     inkscape:window-width="1280"
     inkscape:window-height="997"
     id="namedview47"
     showgrid="false"
     inkscape:zoom="6.1346154"
     inkscape:cx="44.770756"
     inkscape:cy="15.548507"
     inkscape:window-x="1680"
     inkscape:window-y="0"
     inkscape:window-maximized="1"
     inkscape:current-layer="svg2" />
  <!-- Generator: Sketch 3.7.2 (28276) - http://www.bohemiancoding.com/sketch -->
  <title
     id="title4">Group</title>
  <desc
     id="desc6">Created with Sketch.</desc>
  <defs
     id="defs8">
    <filter
       x="-0.5"
       y="-0.5"
       width="2"
       height="2"
       filterUnits="objectBoundingBox"
       id="filter-1">
      <feOffset
         dx="0"
         dy="1"
         in="SourceAlpha"
         result="shadowOffsetOuter1"
         id="feOffset11" />
      <feGaussianBlur
         stdDeviation="1"
         in="shadowOffsetOuter1"
         result="shadowBlurOuter1"
         id="feGaussianBlur13" />
      <feColorMatrix
         values="0 0 0 0 0   0 0 0 0 0   0 0 0 0 0  0 0 0 0.123075181 0"
         type="matrix"
         in="shadowBlurOuter1"
         result="shadowMatrixOuter1"
         id="feColorMatrix15" />
      <feMerge
         id="feMerge17">
        <feMergeNode
           in="shadowMatrixOuter1"
           id="feMergeNode19" />
        <feMergeNode
           in="SourceGraphic"
           id="feMergeNode21" />
      </feMerge>
    </filter>
    <path
       d="m 14.5,22.719298 c -2.52315,0 -4.5588235,-2.056288 -4.5588235,-4.604989 0,-2.549249 2.0356735,-4.605537 4.5588235,-4.605537 2.52315,0 4.558823,2.056288 4.558823,4.605537 0,2.548701 -2.035673,4.604989 -4.558823,4.604989 l 0,0 z m 0,-7.935627 c -1.832106,0 -3.337419,1.520556 -3.337419,3.371216 0,1.850659 1.505313,3.371216 3.337419,3.371216 1.832106,0 3.337419,-1.520557 3.337419,-3.371216 0,-1.85066 -1.505313,-3.371216 -3.337419,-3.371216 l 0,0 z"
       id="path-2"
       inkscape:connector-curvature="0" />
    <filter
       x="-0.5"
       y="-0.5"
       width="2"
       height="2"
       filterUnits="objectBoundingBox"
       id="filter-3">
      <feGaussianBlur
         stdDeviation="1"
         in="SourceAlpha"
         result="shadowBlurInner1"
         id="feGaussianBlur25" />
      <feOffset
         dx="0"
         dy="1"
         in="shadowBlurInner1"
         result="shadowOffsetInner1"
         id="feOffset27" />
      <feComposite
         in="shadowOffsetInner1"
         in2="SourceAlpha"
         operator="arithmetic"
         k2="-1"
         k3="1"
         result="shadowInnerInner1"
         id="feComposite29"
         k1="0"
         k4="0" />
      <feColorMatrix
         values="0 0 0 0 0   0 0 0 0 0   0 0 0 0 0  0 0 0 0.173629982 0"
         type="matrix"
         in="shadowInnerInner1"
         id="feColorMatrix31" />
    </filter>
  </defs>
  <g
     id="g4219"
     transform="translate(0.29913071,-9.7992076)">
    <path
       transform="matrix(0.61566148,-0.78801075,-0.78801075,-0.61566148,12.196038,48.188474)"
       style="fill:#1a1b41;fill-rule:evenodd;stroke:none;stroke-width:1;filter:url(#filter-1)"
       inkscape:connector-curvature="0"
       id="Fill-7"
       d="m 11.719725,15.842719 c -0.227941,0 -0.410901,-0.09149 -0.54645,-0.275701 L 5.1094314,6.9078947 C 4.8814902,6.5867544 4.971451,6.1716667 5.2923922,5.9414035 5.6102941,5.7111403 6.0211961,5.8020175 6.2491373,6.1262281 L 12.31298,14.784737 c 0.227942,0.321754 0.137981,0.736228 -0.182353,0.966491 -0.13798,0.04605 -0.27596,0.09149 -0.410902,0.09149 l 0,0 z" />
    <g
       transform="translate(-0.44963898,10)"
       id="g4214">
      <path
         d="m 3.8317451,7.7835088 c -2.096451,0 -3.78443137,-1.7033334 -3.78443137,-3.8235965 0,-2.117807 1.68554897,-3.82298247 3.78443137,-3.82298247 2.096451,0 3.7850392,1.70271927 3.7850392,3.82298247 0,2.117807 -1.6885882,3.8235965 -3.7850392,3.8235965 l 0,0 z m 0,-6.2171053 c -1.3226667,0 -2.4167843,1.1058772 -2.4167843,2.4414035 0,1.3361404 1.0941176,2.4420176 2.4167843,2.4420176 1.3226667,0 2.4173922,-1.1058772 2.4173922,-2.4420176 0,-1.3336842 -1.0947255,-2.4414035 -2.4173922,-2.4414035 l 0,0 z"
         id="Fill-2"
         inkscape:connector-curvature="0"
         style="fill:#1a1b41;fill-rule:evenodd;stroke:none;stroke-width:1;filter:url(#filter-1)"
         transform="matrix(0.61566148,-0.78801075,-0.78801075,-0.61566148,12.196038,38.188474)" />
      <path
         d="m 25.807098,24.91386 c -2.097059,0 -3.785039,-1.70272 -3.785039,-3.822983 0,-2.118421 1.685549,-3.823596 3.785039,-3.823596 2.096451,0 3.784431,1.703333 3.784431,3.823596 0,2.117807 -1.68798,3.822983 -3.784431,3.822983 l 0,0 z m 0,-6.217106 c -1.322667,0 -2.417392,1.105878 -2.417392,2.442018 0,1.33614 1.094725,2.441403 2.417392,2.441403 1.322059,0 2.416784,-1.105263 2.416784,-2.441403 0,-1.333684 -1.097157,-2.442018 -2.416784,-2.442018 l 0,0 z"
         id="Fill-5"
         inkscape:connector-curvature="0"
         style="fill:#1a1b41;fill-rule:evenodd;stroke:none;stroke-width:1;filter:url(#filter-1)"
         transform="matrix(0.61566148,-0.78801075,-0.78801075,-0.61566148,12.196038,38.188474)" />
      <path
         d="m 22.705882,21.459912 c -0.08996,0 -0.18296,0 -0.272921,-0.04544 L 18.647922,19.80263 c -0.365314,-0.139386 -0.500863,-0.551404 -0.365314,-0.921053 0.137372,-0.369649 0.545843,-0.505965 0.911764,-0.369649 l 3.784432,1.611842 c 0.365921,0.139386 0.500863,0.552017 0.365921,0.921053 -0.13798,0.230263 -0.365921,0.415087 -0.638843,0.415087 l 0,0 z"
         id="Fill-11"
         inkscape:connector-curvature="0"
         style="fill:#1a1b41;fill-rule:evenodd;stroke:none;stroke-width:1;filter:url(#filter-1)"
         transform="matrix(0.61566148,-0.78801075,-0.78801075,-0.61566148,12.196038,38.188474)" />
    </g>
    <g
       transform="matrix(0.61566148,-0.78801075,-0.78801075,-0.61566148,12.196038,48.188474)"
       id="Fill-1"
       style="fill:none;fill-rule:evenodd;stroke:none;stroke-width:1;filter:url(#filter-1)">
      <use
         height="100%"
         width="100%"
         y="0"
         x="0"
         style="fill:#a4f004;fill-rule:evenodd"
         id="use43"
         xlink:href="#path-2" />
      <use
         height="100%"
         width="100%"
         y="0"
         x="0"
         style="fill:#000000;fill-opacity:1;filter:url(#filter-3)"
         id="use45"
         xlink:href="#path-2" />
    </g>
  </g>
</svg>

<?xml version="1.0" encoding="UTF-8" standalone="no"?>
<svg width="104px" height="40px" viewBox="0 0 104 40" version="1.1" xmlns="http://www.w3.org/2000/svg" xmlns:xlink="http://www.w3.org/1999/xlink">
    <!-- Generator: Sketch 3.7.2 (28276) - http://www.bohemiancoding.com/sketch -->
    <title>Group</title>
    <desc>Created with Sketch.</desc>
    <defs>
        <filter x="-50%" y="-50%" width="200%" height="200%" filterUnits="objectBoundingBox" id="filter-1">
            <feOffset dx="0" dy="1" in="SourceAlpha" result="shadowOffsetOuter1"></feOffset>
            <feGaussianBlur stdDeviation="1" in="shadowOffsetOuter1" result="shadowBlurOuter1"></feGaussianBlur>
            <feColorMatrix values="0 0 0 0 0   0 0 0 0 0   0 0 0 0 0  0 0 0 0.123075181 0" type="matrix" in="shadowBlurOuter1" result="shadowMatrixOuter1"></feColorMatrix>
            <feMerge>
                <feMergeNode in="shadowMatrixOuter1"></feMergeNode>
                <feMergeNode in="SourceGraphic"></feMergeNode>
            </feMerge>
        </filter>
        <path d="M14.5,22.7192982 C11.9768502,22.7192982 9.94117647,20.66301 9.94117647,18.1143093 C9.94117647,15.5650602 11.9768502,13.5087719 14.5,13.5087719 C17.0231498,13.5087719 19.0588235,15.5650602 19.0588235,18.1143093 C19.0588235,20.66301 17.0231498,22.7192982 14.5,22.7192982 L14.5,22.7192982 Z M14.5,14.7836706 C12.6678936,14.7836706 11.1625807,16.3042273 11.1625807,18.1548867 C11.1625807,20.0055461 12.6678936,21.5261027 14.5,21.5261027 C16.3321064,21.5261027 17.8374193,20.0055461 17.8374193,18.1548867 C17.8374193,16.3042273 16.3321064,14.7836706 14.5,14.7836706 L14.5,14.7836706 Z" id="path-2"></path>
        <filter x="-50%" y="-50%" width="200%" height="200%" filterUnits="objectBoundingBox" id="filter-3">
            <feGaussianBlur stdDeviation="1" in="SourceAlpha" result="shadowBlurInner1"></feGaussianBlur>
            <feOffset dx="0" dy="1" in="shadowBlurInner1" result="shadowOffsetInner1"></feOffset>
            <feComposite in="shadowOffsetInner1" in2="SourceAlpha" operator="arithmetic" k2="-1" k3="1" result="shadowInnerInner1"></feComposite>
            <feColorMatrix values="0 0 0 0 0   0 0 0 0 0   0 0 0 0 0  0 0 0 0.173629982 0" type="matrix" in="shadowInnerInner1"></feColorMatrix>
        </filter>
    </defs>
    <g id="Page-1" stroke="none" stroke-width="1" fill="none" fill-rule="evenodd">
        <g id="peermit-logo-2-copy" transform="translate(-109.000000, -242.000000)">
            <g id="Group" transform="translate(101.000000, 241.000000)">
                <path d="M32.12,14.928 C32.12,14.7679992 32.1679995,14.6240006 32.264,14.496 C32.3600005,14.3679994 32.4826659,14.2773336 32.632,14.224 C33.3893371,13.957332 34.1946624,13.824 35.048,13.824 C35.4853355,13.824 35.8826649,13.8959993 36.24,14.04 C36.5973351,14.1840007 36.9039987,14.3839987 37.16,14.64 C37.4160013,14.8960013 37.6133326,15.2026649 37.752,15.56 C37.8906674,15.9173351 37.96,16.3146645 37.96,16.752 L37.96,19.232 C37.96,19.6693355 37.8906674,20.0666649 37.752,20.424 C37.6133326,20.7813351 37.4160013,21.0879987 37.16,21.344 C36.9039987,21.6000013 36.5973351,21.7999993 36.24,21.944 C35.8826649,22.0880007 35.4853355,22.16 35.048,22.16 C34.7173317,22.16 34.3973349,22.1173338 34.088,22.032 C33.7786651,21.9466662 33.4853347,21.8293341 33.208,21.68 L33.208,25.024 C33.208,25.1733341 33.1546672,25.3013328 33.048,25.408 C32.9413328,25.5146672 32.8133341,25.568 32.664,25.568 C32.5146659,25.568 32.3866672,25.5146672 32.28,25.408 C32.1733328,25.3013328 32.12,25.1733341 32.12,25.024 L32.12,14.928 Z M36.872,16.672 C36.872,16.0959971 36.7120016,15.645335 36.392,15.32 C36.0719984,14.994665 35.6240029,14.832 35.048,14.832 C34.4293302,14.832 33.816003,14.9226658 33.208,15.104 L33.208,20.512 C33.4533346,20.7466678 33.7359984,20.9119995 34.056,21.008 C34.3760016,21.1040005 34.706665,21.152 35.048,21.152 C35.6240029,21.152 36.0719984,20.989335 36.392,20.664 C36.7120016,20.338665 36.872,19.8880029 36.872,19.312 L36.872,16.672 Z M46.0613335,18.336 L46.0613335,19.232 C46.0613335,19.8080029 46.2239985,20.2719982 46.5493335,20.624 C46.8746685,20.9760018 47.3253306,21.152 47.9013335,21.152 C48.2213351,21.152 48.533332,21.1093338 48.8373335,21.024 C49.141335,20.9386662 49.4373321,20.8320006 49.7253335,20.704 C49.8000005,20.6719998 49.8746665,20.656 49.9493335,20.656 C50.0986676,20.656 50.2266663,20.7039995 50.3333335,20.8 C50.4400007,20.8960005 50.4933335,21.0186659 50.4933335,21.168 C50.4933335,21.3920011 50.3920012,21.5519995 50.1893335,21.648 C49.826665,21.8293342 49.4560021,21.9599996 49.0773335,22.04 C48.6986649,22.1200004 48.3066689,22.16 47.9013335,22.16 C47.463998,22.16 47.064002,22.0880007 46.7013335,21.944 C46.338665,21.7999993 46.0293348,21.6000013 45.7733335,21.344 C45.5173322,21.0879987 45.3200009,20.7813351 45.1813335,20.424 C45.0426661,20.0666649 44.9733335,19.6693355 44.9733335,19.232 L44.9733335,16.752 C44.9733335,16.3146645 45.0426661,15.9173351 45.1813335,15.56 C45.3200009,15.2026649 45.5173322,14.8960013 45.7733335,14.64 C46.0293348,14.3839987 46.338665,14.1840007 46.7013335,14.04 C47.064002,13.8959993 47.463998,13.824 47.9013335,13.824 C48.338669,13.824 48.7359984,13.8959993 49.0933335,14.04 C49.4506686,14.1840007 49.7573322,14.3839987 50.0133335,14.64 C50.2693348,14.8960013 50.4666661,15.2026649 50.6053335,15.56 C50.7440009,15.9173351 50.8133335,16.3146645 50.8133335,16.752 L50.8133335,17.584 C50.8133335,17.7973344 50.7413342,17.9759993 50.5973335,18.12 C50.4533328,18.2640007 50.2746679,18.336 50.0613335,18.336 L46.0613335,18.336 Z M49.7253335,16.672 C49.7253335,16.0959971 49.5653351,15.645335 49.2453335,15.32 C48.9253319,14.994665 48.4773364,14.832 47.9013335,14.832 C47.3253306,14.832 46.8746685,14.994665 46.5493335,15.32 C46.2239985,15.645335 46.0613335,16.0959971 46.0613335,16.672 L46.0613335,17.328 L49.7253335,17.328 L49.7253335,16.672 Z M58.834667,18.336 L58.834667,19.232 C58.834667,19.8080029 58.997332,20.2719982 59.322667,20.624 C59.6480019,20.9760018 60.0986641,21.152 60.674667,21.152 C60.9946686,21.152 61.3066655,21.1093338 61.610667,21.024 C61.9146685,20.9386662 62.2106655,20.8320006 62.498667,20.704 C62.573334,20.6719998 62.6479999,20.656 62.722667,20.656 C62.8720011,20.656 62.9999998,20.7039995 63.106667,20.8 C63.2133342,20.8960005 63.266667,21.0186659 63.266667,21.168 C63.266667,21.3920011 63.1653347,21.5519995 62.962667,21.648 C62.5999985,21.8293342 62.2293355,21.9599996 61.850667,22.04 C61.4719984,22.1200004 61.0800023,22.16 60.674667,22.16 C60.2373315,22.16 59.8373355,22.0880007 59.474667,21.944 C59.1119985,21.7999993 58.8026683,21.6000013 58.546667,21.344 C58.2906657,21.0879987 58.0933343,20.7813351 57.954667,20.424 C57.8159996,20.0666649 57.746667,19.6693355 57.746667,19.232 L57.746667,16.752 C57.746667,16.3146645 57.8159996,15.9173351 57.954667,15.56 C58.0933343,15.2026649 58.2906657,14.8960013 58.546667,14.64 C58.8026683,14.3839987 59.1119985,14.1840007 59.474667,14.04 C59.8373355,13.8959993 60.2373315,13.824 60.674667,13.824 C61.1120025,13.824 61.5093319,13.8959993 61.866667,14.04 C62.2240021,14.1840007 62.5306657,14.3839987 62.786667,14.64 C63.0426683,14.8960013 63.2399996,15.2026649 63.378667,15.56 C63.5173343,15.9173351 63.586667,16.3146645 63.586667,16.752 L63.586667,17.584 C63.586667,17.7973344 63.5146677,17.9759993 63.370667,18.12 C63.2266663,18.2640007 63.0480014,18.336 62.834667,18.336 L58.834667,18.336 Z M62.498667,16.672 C62.498667,16.0959971 62.3386686,15.645335 62.018667,15.32 C61.6986654,14.994665 61.2506699,14.832 60.674667,14.832 C60.0986641,14.832 59.6480019,14.994665 59.322667,15.32 C58.997332,15.645335 58.834667,16.0959971 58.834667,16.672 L58.834667,17.328 L62.498667,17.328 L62.498667,16.672 Z M70.8400005,16.032 C70.8400005,15.7013317 70.8959999,15.4000014 71.0080005,15.128 C71.120001,14.8559986 71.2693329,14.624001 71.4560005,14.432 C71.6426681,14.239999 71.8639992,14.0906672 72.1200005,13.984 C72.3760018,13.8773328 72.647999,13.824 72.9360005,13.824 C73.298669,13.824 73.6826651,13.8666662 74.0880005,13.952 C74.2160011,13.9733334 74.3200001,14.0373328 74.4000005,14.144 C74.4800009,14.2506672 74.5200005,14.3626661 74.5200005,14.48 C74.5200005,14.6293341 74.4666677,14.7519995 74.3600005,14.848 C74.2533333,14.9440005 74.1253346,14.992 73.9760005,14.992 C73.9333336,14.992 73.8906674,14.9866667 73.8480005,14.976 C73.8053336,14.9653333 73.7573341,14.9546667 73.7040005,14.944 C73.5759998,14.9226666 73.4506678,14.9040001 73.3280005,14.888 C73.2053332,14.8719999 73.0746678,14.864 72.9360005,14.864 C72.6586658,14.864 72.4213348,14.9626657 72.2240005,15.16 C72.0266662,15.3573343 71.9280005,15.6319982 71.9280005,15.984 L71.9280005,21.616 C71.9280005,21.7653341 71.8746677,21.8933328 71.7680005,22 C71.6613333,22.1066672 71.5333346,22.16 71.3840005,22.16 C71.2346664,22.16 71.1066677,22.1066672 71.0000005,22 C70.8933333,21.8933328 70.8400005,21.7653341 70.8400005,21.616 L70.8400005,16.032 Z M90.077334,16.496 C90.077334,16.2719989 90.0346677,16.0586677 89.949334,15.856 C89.8640002,15.6533323 89.746668,15.4746674 89.597334,15.32 C89.4479999,15.1653326 89.2720016,15.0453338 89.069334,14.96 C88.8666663,14.8746662 88.6533351,14.832 88.429334,14.832 C87.8106642,14.832 87.2560031,15.0133315 86.765334,15.376 L86.765334,21.616 C86.765334,21.7653341 86.7146678,21.8933328 86.613334,22 C86.5120001,22.1066672 86.386668,22.16 86.237334,22.16 C86.0879999,22.16 85.9600012,22.1066672 85.853334,22 C85.7466668,21.8933328 85.693334,21.7653341 85.693334,21.616 L85.693334,15.968 C85.693334,15.7866658 85.6533344,15.6240007 85.573334,15.48 C85.4933336,15.3359993 85.3840013,15.2160005 85.245334,15.12 C85.1066666,15.0239995 84.9520015,14.9520002 84.781334,14.904 C84.6106664,14.8559998 84.4346682,14.832 84.253334,14.832 C83.602664,14.832 82.9786703,14.9333323 82.381334,15.136 L82.381334,21.616 C82.381334,21.7653341 82.3280012,21.8933328 82.221334,22 C82.1146668,22.1066672 81.986668,22.16 81.837334,22.16 C81.6879999,22.16 81.5600012,22.1066672 81.453334,22 C81.3466668,21.8933328 81.293334,21.7653341 81.293334,21.616 L81.293334,14.976 C81.293334,14.8266659 81.3360002,14.6880006 81.421334,14.56 C81.5066677,14.4319994 81.6239999,14.3413336 81.773334,14.288 C82.1786693,14.1386659 82.581332,14.0240004 82.981334,13.944 C83.381336,13.8639996 83.8053317,13.824 84.253334,13.824 C84.6480026,13.824 85.007999,13.890666 85.333334,14.024 C85.6586689,14.157334 85.9333328,14.3359989 86.157334,14.56 C86.4880023,14.3253322 86.8479987,14.1440006 87.237334,14.016 C87.6266692,13.8879994 88.0239986,13.824 88.429334,13.824 C88.8026692,13.824 89.1546656,13.8959993 89.485334,14.04 C89.8160023,14.1840007 90.106666,14.3813321 90.357334,14.632 C90.6080019,14.8826679 90.8053332,15.1733317 90.949334,15.504 C91.0933347,15.8346683 91.165334,16.1919981 91.165334,16.576 L91.165334,21.616 C91.165334,21.7653341 91.1120012,21.8933328 91.005334,22 C90.8986668,22.1066672 90.770668,22.16 90.621334,22.16 C90.4719999,22.16 90.3440012,22.1066672 90.237334,22 C90.1306668,21.8933328 90.077334,21.7653341 90.077334,21.616 L90.077334,16.496 Z M98.8346675,14.368 C98.8346675,14.2186659 98.8880003,14.0906672 98.9946675,13.984 C99.1013347,13.8773328 99.2293334,13.824 99.3786675,13.824 C99.5280015,13.824 99.6560003,13.8773328 99.7626675,13.984 C99.8693347,14.0906672 99.9226675,14.2186659 99.9226675,14.368 L99.9226675,21.616 C99.9226675,21.7653341 99.8693347,21.8933328 99.7626675,22 C99.6560003,22.1066672 99.5280015,22.16 99.3786675,22.16 C99.2293334,22.16 99.1013347,22.1066672 98.9946675,22 C98.8880003,21.8933328 98.8346675,21.7653341 98.8346675,21.616 L98.8346675,14.368 Z M99.3786675,12.08 C99.1759998,12.08 99.0053348,12.0080007 98.8666675,11.864 C98.7280001,11.7199993 98.6586675,11.5466677 98.6586675,11.344 C98.6586675,11.1413323 98.7280001,10.9706674 98.8666675,10.832 C99.0053348,10.6933326 99.1759998,10.624 99.3786675,10.624 C99.5813351,10.624 99.7520001,10.6933326 99.8906675,10.832 C100.029335,10.9706674 100.098667,11.1413323 100.098667,11.344 C100.098667,11.5466677 100.029335,11.7199993 99.8906675,11.864 C99.7520001,12.0080007 99.5813351,12.08 99.3786675,12.08 L99.3786675,12.08 Z M107.672001,11.168 C107.672001,11.0186659 107.725334,10.8906672 107.832001,10.784 C107.938668,10.6773328 108.066667,10.624 108.216001,10.624 C108.365335,10.624 108.493334,10.6773328 108.600001,10.784 C108.706668,10.8906672 108.760001,11.0186659 108.760001,11.168 L108.760001,13.984 L110.600001,13.984 C110.749335,13.984 110.874667,14.0346662 110.976001,14.136 C111.077335,14.2373338 111.128001,14.3626659 111.128001,14.512 C111.128001,14.6613341 111.077335,14.7839995 110.976001,14.88 C110.874667,14.9760005 110.749335,15.024 110.600001,15.024 L108.760001,15.024 L108.760001,20 C108.760001,20.341335 108.858667,20.6106657 109.056001,20.808 C109.253335,21.0053343 109.490666,21.104 109.768001,21.104 C109.885335,21.104 110.034667,21.0933334 110.216001,21.072 C110.397335,21.0506666 110.530667,21.04 110.616001,21.04 C110.733335,21.04 110.848,21.0853329 110.960001,21.176 C111.072002,21.2666671 111.128001,21.3919992 111.128001,21.552 C111.128001,21.6800006 111.088001,21.7946662 111.008001,21.896 C110.928001,21.9973338 110.818668,22.0586666 110.680001,22.08 C110.530667,22.1013334 110.378668,22.1199999 110.224001,22.136 C110.069334,22.1520001 109.917335,22.16 109.768001,22.16 C109.48,22.16 109.208002,22.1066672 108.952001,22 C108.696,21.8933328 108.474669,21.744001 108.288001,21.552 C108.101333,21.359999 107.952002,21.1280014 107.840001,20.856 C107.728,20.5839986 107.672001,20.2880016 107.672001,19.968 L107.672001,11.168 Z" id="peermit" fill="#1A1B41"></path>
                <g id="Imported-Layers" filter="url(#filter-1)" transform="translate(19.580826, 19.672544) scale(-1, 1) rotate(-128.000000) translate(-19.580826, -19.672544) translate(4.580826, 7.172544)">
                    <path d="M3.8317451,7.78350877 C1.73529412,7.78350877 0.0473137255,6.08017544 0.0473137255,3.95991228 C0.0473137255,1.84210526 1.73286275,0.136929825 3.8317451,0.136929825 C5.92819608,0.136929825 7.61678431,1.83964912 7.61678431,3.95991228 C7.61678431,6.0777193 5.92819608,7.78350877 3.8317451,7.78350877 L3.8317451,7.78350877 Z M3.8317451,1.56640351 C2.50907843,1.56640351 1.41496078,2.6722807 1.41496078,4.00780702 C1.41496078,5.34394737 2.50907843,6.44982456 3.8317451,6.44982456 C5.15441176,6.44982456 6.24913725,5.34394737 6.24913725,4.00780702 C6.24913725,2.67412281 5.15441176,1.56640351 3.8317451,1.56640351 L3.8317451,1.56640351 Z" id="Fill-2" fill="#1A1B41"></path>
                    <path d="M25.807098,24.9138596 C23.7100392,24.9138596 22.0220588,23.2111404 22.0220588,21.0908772 C22.0220588,18.9724561 23.7076078,17.2672807 25.807098,17.2672807 C27.903549,17.2672807 29.5915294,18.970614 29.5915294,21.0908772 C29.5915294,23.2086842 27.903549,24.9138596 25.807098,24.9138596 L25.807098,24.9138596 Z M25.807098,18.6967544 C24.4844314,18.6967544 23.3897059,19.8026316 23.3897059,21.1387719 C23.3897059,22.4749123 24.4844314,23.5801754 25.807098,23.5801754 C27.1291569,23.5801754 28.2238824,22.4749123 28.2238824,21.1387719 C28.2238824,19.8050877 27.1267255,18.6967544 25.807098,18.6967544 L25.807098,18.6967544 Z" id="Fill-5" fill="#1A1B41"></path>
                    <path d="M11.7197255,15.8427193 C11.4917843,15.8427193 11.3088235,15.7512281 11.1732745,15.5670175 L5.10943137,6.90789474 C4.8814902,6.58675439 4.97145098,6.17166667 5.29239216,5.94140351 C5.61029412,5.71114035 6.02119608,5.80201754 6.24913725,6.12622807 L12.3129804,14.7847368 C12.5409216,15.1064912 12.4509608,15.5209649 12.1306275,15.7512281 C11.9926471,15.7972807 11.8546667,15.8427193 11.7197255,15.8427193 L11.7197255,15.8427193 Z" id="Fill-7" fill="#1A1B41"></path>
                    <path d="M22.7058824,21.4599123 C22.6159216,21.4599123 22.5229216,21.4599123 22.4329608,21.4144737 L18.6479216,19.8026316 C18.2826078,19.6632456 18.1470588,19.2512281 18.2826078,18.8815789 C18.4199804,18.5119298 18.828451,18.375614 19.1943725,18.5119298 L22.9788039,20.1237719 C23.3447255,20.2631579 23.4796667,20.6757895 23.3447255,21.0448246 C23.2067451,21.2750877 22.9788039,21.4599123 22.7058824,21.4599123 L22.7058824,21.4599123 Z" id="Fill-11" fill="#1A1B41"></path>
                    <g id="Fill-1">
                        <use fill="#A4F004" fill-rule="evenodd" xlink:href="#path-2"></use>
                        <use fill="black" fill-opacity="1" filter="url(#filter-3)" xlink:href="#path-2"></use>
                    </g>
                </g>
            </g>
        </g>
    </g>
</svg>
